X: 56
M:2/4
L:1/16
K:D
vAG|FADF Adcd|edcd e2veuf|gfed edcB|ABAG F2vAuG|
|:vF"8va ad lib."G|"4"A^GAF DFAF|GABc edcB|\
"4"A^GAF DFAF|GFED E2(FG)|
"4"A^GAF DFAF|GABc edcB|ABAF AGFE|D2F2D2:|


